X:712
%%etbk:tnset id:409,pos:1,rep:3x,ant:
%%etbk:wsite https://thesession.org/tunes/1357
%%etbk:pldat 2016-09-16T17:00,2016-09-15T18:27,2016-09-13T17:15,2016-09-10T14:47,2016-09-08T19:01,2016-07-15T14:36,2016-07-07T16:32,2016-06-12T15:32,2016-05-29T14:44,2016-05-04T17:15,2016-03-31T18:06,2016-03-22T18:11,2016-01-17T14:24,2016-01-14T18:34,2016-01-13T17:18,2016-01-12T17:56,2016-01-04T19:02,2016-01-03T14:24,2015-12-29T17:48,2015-12-28T17:24,2015-12-22T17:52,2015-12-21T19:38,2015-12-16T17:52,2015-12-14T18:26,2015-08-14T17:17,2015-05-06T15:52,2015-04-29T18:54
T: Jenny Picking Cockles
Z: Piano Box Version by Martin Fleischmann
H: Created 2015-04-29 /  Last Modified 2015-12-16
R: reel
M: 4/4
L: 1/8
K: Dmix
|:!3!A!5!dd!4!c !3!AG!1!E!2!F|!2!GE!4!cE !5!dEcE|Addc AGEF|!3!G!1!E!5!cE EDD2|
Addc AGE!2!F|!1!~G2!2!A!3!B !4!c2!3!cd|!5!edd!3!c !2!A!1!G!2!EF|!4!G!2!E!5!cE EDD2:|
|:!5!f2fd !4!efed|!2!^cAAB !3!c!1!deg|fedf ed^cd|eaag edd2|
f2fd efed|!3!^cAAB !3!=c3d|!5!eddc AGEF|GEcE EDD2:|


